!!!OTL: Jinluo yi zhu wo kai yan
!!!ARE: Asia, China,ÿJiangsu, Liuhe
!! III, 480
!!!SCT: C1582
!!!YEM: Copyright 1995, estate of Helmut Schaffrath.
**kern
*ICvox
*Ivox
!! Mixed meters:  2/4; 3/4
*M3/4
*k[b-e-]
*B-:
{4cc
4ff
=1
4cc
8cc
8b-
=2
[2cc
=3
2cc]}
=4
{8cc
8cc
8cc
8b-
=5
4cc
4r
=6
8cc
8cc
8cc
8b-
=7
4cc
4r}
=8
{8cc
8cc
8cc
8b-
=9
4cc
8b-
8cc
=10
4dd
8dd
8gg
=11
8ff
8cc
8cc
8b-
=12
[2cc
=13
2cc]}
=14
{8cc
8cc
8cc
8b-
=15
8ff
4dd
8ff
4cc
=16
*M2/4
8cc
8ff
8dd
8cc
=17
8cc
8b-
8g
8r}
=18
{8g
8g
8g
8b-
=19
8cc
8ff
8dd
8cc
=20
8cc
8b-
8g
8f
=21
8f
8en
4f}
=22
{8g
8g
8g
8b-
=23
8dd
8cc
8cc
8b-
=24
8g
8d
8f
8g
=25
8cc
8b-
8g
8f
=26
8f
8en
[4f
=27
2f]}
=28
{8ff
8een
8gg
8ff
=29
8ff
8cc
8cc
8b-
=30
[2cc
=31
2cc]}
=32
{8cc
8cc
8cc
8b-
=33
4cc
4r
=34
8cc
8cc
8cc
8b-
=35
4cc
4r}
=36
{8cc
8cc
8cc
8b-
=37
4cc
8b-
8cc
=38
4dd
8dd
8gg
=39
8ff
8cc
8cc
8b-
=40
[2cc
=41
2cc]}
=42
{8cc
8b-
4cc
=43
8g
8b-
4cc
=44
8ff
16een
16ff
8gg
8ff
=45
8cc
8b-
4cc}
=46
{8cc
16ff
16ff
8ff
8ff
=47
8gg
16gg
16ff
8ee-
8cc
=48
8ff
16cc
16cc
8cc
8b-
=49
2cc}
==
!!!AGN: Shange, Tiange, Gedongdai
!!!AMT: irregular
!!!AIN: vox
!!!EED: Helmut Schaffrath
!!!EEV: 1.0
*-
!!!ONB: Tied note syntax fixed by Craig Sapp, 2004/05/03/
